packages/core/src/svgs/firo.svg

<svg width="24" height="24" viewBox="0 0 24 24" fill="none" xmlns="http://www.w3.org/2000/svg">
<g clip-path="url(#clip0_31_10317)">
<path d="M0 0H24V24H0V0Z" fill="#8D1B28"/>
<path d="M11.9999 18.8569C13.123 18.8574 14.2291 18.5821 15.2209 18.0551C16.2127 17.528 17.0598 16.7655 17.6879 15.8344C18.316 14.9033 18.7057 13.8322 18.8229 12.7152C18.9401 11.5982 18.7811 10.4695 18.3599 9.42833H15.0213C14.9454 9.42846 14.8708 9.44877 14.8053 9.48718C14.7398 9.52558 14.6857 9.5807 14.6485 9.6469L14.057 10.714H15.4285C15.5421 10.714 15.6511 10.7592 15.7315 10.8396C15.8119 10.9199 15.857 11.029 15.857 11.1426V12.4283C15.857 12.542 15.8119 12.651 15.7315 12.7314C15.6511 12.8118 15.5421 12.8569 15.4285 12.8569H12.857L10.8213 16.4955C10.7841 16.5617 10.73 16.6168 10.6645 16.6552C10.599 16.6936 10.5244 16.7139 10.4485 16.714H7.0199C8.27133 18.034 10.037 18.8569 11.9999 18.8569ZM5.6399 14.5712C5.03864 13.0894 4.97415 11.4441 5.45759 9.91985C5.94103 8.39558 6.94199 7.08819 8.28735 6.22383C9.63272 5.35946 11.2379 4.99247 12.8252 5.18633C14.4125 5.3802 15.8821 6.12272 16.9799 7.28548H13.7656C13.6897 7.28561 13.6151 7.30591 13.5496 7.34432C13.4841 7.38272 13.43 7.43785 13.3928 7.50405L11.597 10.714H8.9999C8.88624 10.714 8.77723 10.7592 8.69686 10.8396C8.61648 10.9199 8.57133 11.029 8.57133 11.1426V12.4283C8.57133 12.542 8.61648 12.651 8.69686 12.7314C8.77723 12.8118 8.88624 12.8569 8.9999 12.8569H10.4013L9.56562 14.3526C9.5284 14.4188 9.47427 14.4739 9.40876 14.5123C9.34324 14.5508 9.2687 14.5711 9.19276 14.5712H5.6399Z" fill="white"/>
</g>
<defs>
<clipPath id="clip0_31_10317">
<rect width="24" height="24" fill="white"/>
</clipPath>
</defs>
</svg>

<svg xmlns="http://www.w3.org/2000/svg" width="24" height="24" fill="none" viewBox="0 0 24 24"><g clip-path="url(#a)"><path fill="#8D1B28" d="M0 0h24v24H0z"/><path fill="#fff" d="M12 18.857a6.858 6.858 0 0 0 6.36-9.429H15.02a.43.43 0 0 0-.373.219l-.591 1.067h1.371a.43.43 0 0 1 .429.429v1.285a.43.43 0 0 1-.428.429h-2.572l-2.036 3.639a.43.43 0 0 1-.373.218H7.02A6.84 6.84 0 0 0 12 18.857M5.64 14.57a6.857 6.857 0 0 1 11.34-7.286h-3.214a.43.43 0 0 0-.373.22l-1.796 3.209H9a.43.43 0 0 0-.429.429v1.285a.43.43 0 0 0 .429.429H10.4l-.835 1.496a.43.43 0 0 1-.373.218z"/></g><defs><clipPath id="a"><path fill="#fff" d="M0 0h24v24H0z"/></clipPath></defs></svg>
